X:1
T: The Gadie Water
C:
R:Jig
Q:180
K:C
M:6/8
L:1/16
G2|c2d2c2 c2B2A2|G2A2G2 G2E2G2|c2d2e2 g2e2c2|B2d2d2 d4G2|c2d2c2 c2B2A2|G2A2G2 G2g2f2|e2d2c2 d2B2G2|G4c2 c4G2|
c2d2c2 c2B2A2|G2A2G2 G2E2G2|c2d2e2 g2e2c2|B2d2d2 d4G2|c2d2c2 c2B2A2|G2A2G2 G2g2f2|e2d2c2 d2B2G2|G4c2 c4e2|
g2e2c2 c2e2g2|a2f2a2 g4f2|e2f2c2 c2d2e2|d6 G4g2|e2d2c2 c2e2g2|a2f2a2 g4f2|e2d2c2 d2B2G2|c6 c4e2|
g2e2c2 c2e2g2|a2f2a2 a2g2f2|e2d2c2 c2d2e2|d2B2G2 G2A2_B2|A2F2A2 c2=B2A2|G2E2G2 G2g2f2|e2d2c2 d2c2B2|c6 C4||
